svg/white/dgd.svg

<svg xmlns="http://www.w3.org/2000/svg" width="32" height="32" viewBox="0 0 32 32">
  <path fill="#FFF" fill-rule="evenodd" d="M16,32 C7.163444,32 0,24.836556 0,16 C0,7.163444 7.163444,0 16,0 C24.836556,0 32,7.163444 32,16 C32,24.836556 24.836556,32 16,32 Z M5.5,11 L5.5,21 L15.5,21 L15.5,11 L5.5,11 Z M12.5,14 L12.5,11 L13.5,11 L13.5,15 L5.5,15 L5.5,14 L12.5,14 Z M7.5,17 L13.5,17 L13.5,19 L7.5,19 L7.5,17 Z M26.5,13 L26.5,11 L16.5,11 L16.5,21 L26.5,21 L26.5,15 L20.5,15 L20.5,17 L24.5,17 L24.5,19 L18.5,19 L18.5,13 L26.5,13 Z"/>
</svg>

<svg xmlns="http://www.w3.org/2000/svg" width="32" height="32"><path fill="#FFF" fill-rule="evenodd" d="M16 32C7.163 32 0 24.837 0 16S7.163 0 16 0s16 7.163 16 16-7.163 16-16 16zM5.5 11v10h10V11h-10zm7 3v-3h1v4h-8v-1h7zm-5 3h6v2h-6v-2zm19-4v-2h-10v10h10v-6h-6v2h4v2h-6v-6h8z"/></svg>
